src/assets/Imgs/light/total.svg

<svg fill="none" height="19" viewBox="0 0 18 19" width="18" xmlns="http://www.w3.org/2000/svg"><g stroke="#1a1323" stroke-linecap="round" stroke-linejoin="round"><path d="m10.75 10.0625v2.775c0 2.34-2.1825 4.2375-4.875 4.2375s-4.875-1.8975-4.875-4.2375v-2.775c0 2.34 2.1825 4.0125 4.875 4.0125s4.875-1.6725 4.875-4.0125z"/><path d="m10.75 6.31172c0 .6825-.1875 1.3125-.5175 1.8525-.8025 1.32-2.4525 2.15998-4.3575 2.15998s-3.555-.83998-4.3575-2.15998c-.33-.54-.5175-1.17-.5175-1.8525 0-1.17.54749-2.2275 1.42499-2.9925.885-.7725 2.10001-1.245 3.45001-1.245s2.565.4725 3.45 1.2375c.8775.7725 1.425 1.83 1.425 3z"/><path d="m10.75 6.31172v3.74998c0 2.34-2.1825 4.0125-4.875 4.0125s-4.875-1.6725-4.875-4.0125v-3.74998c0-2.34 2.1825-4.2375 4.875-4.2375 1.35 0 2.565.4725 3.45 1.2375.8775.7725 1.425 1.83 1.425 3z"/></g></svg>

<svg width="18" height="19" viewBox="0 0 18 19" fill="none" xmlns="http://www.w3.org/2000/svg">
<path d="M10.75 10.0625V12.8375C10.75 15.1775 8.5675 17.075 5.875 17.075C3.1825 17.075 1 15.1775 1 12.8375V10.0625C1 12.4025 3.1825 14.075 5.875 14.075C8.5675 14.075 10.75 12.4025 10.75 10.0625Z" stroke="#1A1323" stroke-linecap="round" stroke-linejoin="round"/>
<path d="M10.75 6.31172C10.75 6.99422 10.5625 7.62422 10.2325 8.16422C9.43 9.48422 7.78 10.3242 5.875 10.3242C3.97 10.3242 2.32 9.48422 1.5175 8.16422C1.1875 7.62422 1 6.99422 1 6.31172C1 5.14172 1.54749 4.08422 2.42499 3.31922C3.30999 2.54672 4.525 2.07422 5.875 2.07422C7.225 2.07422 8.44 2.54672 9.325 3.31172C10.2025 4.08422 10.75 5.14172 10.75 6.31172Z" stroke="#1A1323" stroke-linecap="round" stroke-linejoin="round"/>
<path d="M10.75 6.31172V10.0617C10.75 12.4017 8.5675 14.0742 5.875 14.0742C3.1825 14.0742 1 12.4017 1 10.0617V6.31172C1 3.97172 3.1825 2.07422 5.875 2.07422C7.225 2.07422 8.44 2.54672 9.325 3.31172C10.2025 4.08422 10.75 5.14172 10.75 6.31172Z" stroke="#1A1323" stroke-linecap="round" stroke-linejoin="round"/>
</svg>
